lib/oojs-ui/images/icons/alert.svg

<?xml version="1.0" encoding="iso-8859-1"?>
<svg xmlns="http://www.w3.org/2000/svg" width="24" height="24" viewBox="0 0 24 24">
    <g id="alert" opacity=".75">
        <path id="point" fill-rule="evenodd" clip-rule="evenodd" d="M11 16h2v2h-2z"/>
        <path id="stroke" fill-rule="evenodd" clip-rule="evenodd" d="M13.516 10h-3l.484 5h2z"/>
        <path id="triangle" d="M12.017 5.974l7.519 13.026h-15.04l7.521-13.026m0-2.474c-.544 0-1.088.357-1.5 1.071l-7.985 13.831c-.825 1.429-.15 2.598 1.5 2.598h15.968c1.65 0 2.325-1.169 1.5-2.599l-7.983-13.829c-.413-.715-.956-1.072-1.5-1.072z"/>
    </g>
</svg>

<?xml version="1.0" encoding="iso-8859-1"?>
<!DOCTYPE svg PUBLIC "-//W3C//DTD SVG 1.1//EN" "http://www.w3.org/Graphics/SVG/1.1/DTD/svg11.dtd">
<svg version="1.1" xmlns="http://www.w3.org/2000/svg" xmlns:xlink="http://www.w3.org/1999/xlink" x="0px" y="0px" width="24px"
	 height="24px" viewBox="0 0 24 24" style="enable-background:new 0 0 24 24;" xml:space="preserve">
<g id="alert" style="opacity:0.75;">
	<rect id="point" x="11" y="16" style="fill-rule:evenodd;clip-rule:evenodd;" width="2" height="2"/>
	<polygon id="stroke" style="fill-rule:evenodd;clip-rule:evenodd;" points="13.516,10 10.516,10 11,15 13,15"/>
	<path id="triangle" d="M12.017,5.974L19.536,19H4.496L12.017,5.974 M12.017,3.5c-0.544,0-1.088,0.357-1.5,1.071L2.532,18.402 C1.707,19.831,2.382,21,4.032,21H20c1.65,0,2.325-1.169,1.5-2.599L13.517,4.572C13.104,3.857,12.561,3.5,12.017,3.5L12.017,3.5z"/>
</g>
</svg>
